packages/kaspersky-hexa-ui-icons/src/iconsSVGs/24/Vk.svg

<svg width="24" height="24" viewBox="0 0 24 24" fill="none" xmlns="http://www.w3.org/2000/svg">
<path fill-rule="evenodd" clip-rule="evenodd" d="M4.26306 4.26306C3 5.52612 3 7.55914 3 11.625V12.375C3 16.4409 3 18.4739 4.26306 19.7369C5.52612 21 7.55914 21 11.625 21H12.375C16.4409 21 18.4739 21 19.7369 19.7369C21 18.4739 21 16.4409 21 12.375V11.625C21 7.55914 21 5.52612 19.7369 4.26306C18.4739 3 16.4409 3 12.375 3H11.625C7.55914 3 5.52612 3 4.26306 4.26306ZM6.5625 8.625H7.87537C8.21082 8.625 8.33716 8.77185 8.46295 9.13531C9.10492 11.0052 10.1876 12.6394 10.6326 12.6394C10.7996 12.6394 10.8761 12.5625 10.8761 12.1388V10.2059C10.8461 9.6557 10.6538 9.41766 10.5114 9.24152C10.4233 9.13275 10.3544 9.04742 10.3544 8.92676C10.3544 8.77991 10.4799 8.625 10.6884 8.625H12.7515C13.0296 8.625 13.1265 8.77368 13.1265 9.10748V11.7078C13.1265 11.9857 13.2473 12.0831 13.3308 12.0831C13.4976 12.0831 13.6368 11.9857 13.9427 11.6799C14.8885 10.623 15.5561 8.99615 15.5561 8.99615C15.6097 8.87109 15.6925 8.75354 15.8331 8.68542C15.9115 8.64752 16.0078 8.625 16.1272 8.625H17.4401C17.837 8.625 17.9205 8.82935 17.837 9.10748C17.6702 9.87213 16.0706 12.1249 16.0706 12.1249C15.9932 12.249 15.9415 12.3384 15.9448 12.4365C15.9474 12.5145 15.9846 12.598 16.0706 12.7088C16.1393 12.8047 16.2854 12.9479 16.4528 13.1118C16.6249 13.2805 16.8195 13.4711 16.9748 13.6544C17.5388 14.2886 17.9637 14.8237 18.082 15.1924C18.1902 15.5625 18.0027 15.75 17.6276 15.75H16.3149C15.9631 15.75 15.7861 15.5532 15.4036 15.1276C15.2413 14.9473 15.0423 14.7259 14.7773 14.4609C13.9984 13.71 13.6646 13.6126 13.4698 13.6126C13.2056 13.6126 13.1266 13.6875 13.1266 14.0625V15.2395C13.1266 15.5625 13.0234 15.75 12.1888 15.75C10.7981 15.75 9.26953 14.9059 8.18481 13.3484C6.55756 11.068 6.11243 9.34387 6.11243 8.99615C6.11243 8.80151 6.1875 8.625 6.5625 8.625Z" fill="black"/>
</svg>

<svg xmlns="http://www.w3.org/2000/svg" width="24" height="24" fill="none" viewBox="0 0 24 24"><path fill="#000" fill-rule="evenodd" d="M4.263 4.263C3 5.5262 3 7.5592 3 11.625v.75c0 4.0659 0 6.0989 1.263 7.3619S7.5592 21 11.625 21h.75c4.0659 0 6.0989 0 7.3619-1.2631S21 16.4409 21 12.375v-.75c0-4.0659 0-6.0989-1.2631-7.362S16.4409 3 12.375 3h-.75C7.5591 3 5.5261 3 4.263 4.263m2.2995 4.362h1.3129c.3354 0 .4618.1469.5875.5103.642 1.8699 1.7247 3.5041 2.1697 3.5041.167 0 .2435-.0769.2435-.5006v-1.9329c-.03-.5502-.2223-.7882-.3647-.9644-.0881-.1088-.157-.194-.157-.3147 0-.1469.1255-.3018.334-.3018h2.0631c.2781 0 .375.1487.375.4825v2.6003c0 .2779.1208.3753.2043.3753.1668 0 .306-.0974.6119-.4032.9458-1.0569 1.6134-2.6837 1.6134-2.6837.0536-.1251.1364-.2427.277-.3108.0784-.0379.1747-.0604.2941-.0604h1.3129c.3969 0 .4804.2043.3969.4825-.1668.7646-1.7664 3.0174-1.7664 3.0174-.0774.1241-.1291.2135-.1258.3116.0026.078.0398.1615.1258.2723.0687.0959.2148.2391.3822.403.1721.1687.3667.3593.522.5426.564.6342.9889 1.1693 1.1072 1.538.1082.3701-.0793.5576-.4544.5576h-1.3127c-.3518 0-.5288-.1968-.9113-.6224-.1623-.1803-.3613-.4017-.6263-.6667-.7789-.7509-1.1127-.8483-1.3075-.8483-.2642 0-.3432.0749-.3432.4499v1.177c0 .323-.1032.5105-.9378.5105-1.3907 0-2.9193-.8441-4.004-2.4016-1.6272-2.2804-2.0724-4.0045-2.0724-4.3522 0-.1947.0751-.3712.4501-.3712" clip-rule="evenodd"/></svg>
